X: 1
T: The Yellow Heifer
R: reel
M: 4/4
L: 1/8
K: Gdor
|:DGGF G2 Ac|BG (3GGG dGBG|DFFE EF2 B|A~F3 DFAF|
|DGGF G2 Ac|BGGA Bcde|~f3 d cAFA|1 ABAF DGGF:|2 BGAF DGGA|
|:dgg^f fgdg|(3ggg dg agfd|cffe efcf|(3fff ag fAcf|
|dgg^f fgdg|(3ggg dg agfd|c~f3 cAFA|1 BGAF DGGA:|2 BGAF DGGF|


Tune 344	Setting 13141

